svg/fluentui-system-icons/ic_fluent_star_half_24_regular.svg

<svg width="24" height="24" viewBox="0 0 24 24" fill="none" xmlns="http://www.w3.org/2000/svg">
<path d="M11.9993 2.34961C11.5175 2.34931 11.0356 2.60015 10.7878 3.10215L8.42988 7.87987L3.15735 8.64601C2.05005 8.80691 1.60791 10.1677 2.40916 10.9487L6.2244 14.6676L5.32374 19.9189C5.17402 20.7918 5.86803 21.5007 6.65504 21.5001C6.86293 21.5002 7.07736 21.4509 7.28448 21.342L11.9994 18.8632L16.7143 21.342C17.7047 21.8627 18.8622 21.0217 18.6731 19.9189L17.7724 14.6676L21.5877 10.9487C22.3889 10.1677 21.9468 8.80691 20.8395 8.64601L15.567 7.87987L13.209 3.10215C12.9617 2.601 12.4803 2.35016 11.9993 2.34961C11.9991 2.34961 11.9995 2.34961 11.9993 2.34961ZM12 17.3432V4.04175L14.2568 8.61443C14.4534 9.01288 14.8335 9.28904 15.2732 9.35294L20.323 10.0867L16.6689 13.6486C16.3508 13.9587 16.2056 14.4055 16.2807 14.8435L17.1433 19.8729L12.6266 17.4983C12.4305 17.3952 12.2153 17.3435 12 17.3432Z" fill="#212121"/>
</svg>

<svg xmlns="http://www.w3.org/2000/svg" width="24" height="24"><path d="M12 2.35c-.482 0-.964.25-1.212.752L8.43 7.88l-5.273.766c-1.107.16-1.55 1.522-.748 2.303l3.815 3.719-.9 5.25c-.15.874.544 1.583 1.331 1.582.208 0 .422-.05.63-.158l4.714-2.479 4.715 2.479c.99.52 2.148-.32 1.96-1.423l-.902-5.251 3.816-3.72c.8-.78.359-2.141-.748-2.302l-5.273-.766-2.358-4.778a1.335 1.335 0 0 0-1.21-.752Zm0 14.993V4.042l2.257 4.572a1.35 1.35 0 0 0 1.016.739l5.05.734-3.654 3.562a1.35 1.35 0 0 0-.388 1.195l.862 5.029-4.516-2.375a1.35 1.35 0 0 0-.627-.155Z"/></svg>
